X: 6
T:Mae Nhw'n D'wedyd
M:4/4
L:1/8
Q:220
C:Trad
S:Collected by H.O. Hughes, Bangor
R:Welsh reel
A:Wales
Z:brian_martin12345@yahoo.com
K:G
{efg}.a2.a2.e2.g2|.f.f.e.d.e2.e2|ABcd.e2.e2|edcBA4:||
A2ABc2A2|B2G2A2A2|!A2ABc2A2|B2G2G4|
{efg}.a2.a2.e2.g2|.f.f.e.d.e2.e2|ABcd.e2.e2|edcBA4||
